X:164
T:Footprints in the Snow
C:Robert Earl Keen - Happy Prisoner: the Bluegrass Sessions
N:mandolin: Kym Warner - Transcribed by Philippe Colleu
R:bluegrass
L:1/8
Q:1/4=240
M:4/4
K:C
"127 bpm""B"z4 z^F FD | ^FA Ae ^cA FA | "B"Ae ^cA ^FA ce | ^cA ^FA AB ce | g^g ^fd ed ^cA | 
"E"^c/z/e e3e ee | "F#"c/z/^c ^fc af a_b | ^f3f ff ^cf | a_b ab ^f^c ^d=b | "B"z2 b^d de e^f | 
ae zb zd' zb | z^f af =fe dB | d/e/d Bd B_B G^G | "E"e3e ee c^c | "F#7"^f^c fc f2 f^d/z/ | 
ee ^d^c B^G ^FG | "B"B2 B^c B2 Bc | B2 B^c B^G ^FE | ^DB3 [^c2E2] [d2F2] | [^d8^F8] | 


